static/img/pages/customers/logos/prediko.svg

<svg width="145" height="34" viewBox="0 0 145 34" fill="none" xmlns="http://www.w3.org/2000/svg">
<path d="M6.02565 15.7703H12.5466C13.8672 15.7703 14.8577 15.4526 15.5181 14.817C16.1785 14.1815 16.5086 13.3111 16.5086 12.2059C16.5086 11.1006 16.1785 10.2302 15.5181 9.5947C14.8577 8.9316 13.8672 8.6 12.5466 8.6H6.02565V15.7703ZM6.02565 21.3242V32.4733H0V3.04614H12.5466C15.9033 3.04614 18.4071 3.88889 20.058 5.57438C21.7088 7.2599 22.5343 9.4704 22.5343 12.2059C22.5343 14.9137 21.6813 17.1104 19.9754 18.7959C18.2971 20.4814 15.8208 21.3242 12.5466 21.3242H6.02565Z" fill="white"/>
<path d="M37.8804 10.5895V16.1019C37.4677 16.0191 37.0825 15.9776 36.7248 15.9776C34.9914 15.9776 33.6845 16.4335 32.8041 17.3453C31.9511 18.2572 31.5246 19.694 31.5246 21.6558V32.4734H25.6641V10.7553H31.0706V13.5737C32.3088 11.5566 34.3449 10.5481 37.1789 10.5481L37.8804 10.5895Z" fill="white"/>
<path d="M60.274 23.3135H44.5908C44.7834 24.8056 45.3337 25.9523 46.2417 26.7536C47.1496 27.5273 48.3465 27.9142 49.8321 27.9142C50.7675 27.9142 51.607 27.7207 52.3499 27.3339C53.12 26.9194 53.6704 26.3254 54.0007 25.5517H59.9025C59.2697 27.7622 58.018 29.5582 56.1466 30.9398C54.3033 32.2937 52.1433 32.9706 49.6672 32.9706C46.4755 32.9706 43.8617 31.9068 41.8256 29.7792C39.7895 27.6517 38.7715 24.9161 38.7715 21.5728C38.7715 18.3399 39.7895 15.6459 41.8256 13.4907C43.8617 11.3354 46.4618 10.2578 49.626 10.2578C52.7903 10.2578 55.3624 11.3354 57.3435 13.4907C59.3521 15.6183 60.3565 18.3123 60.3565 21.5728L60.274 23.3135ZM49.5847 14.9827C48.2639 14.9827 47.1771 15.3558 46.3242 16.1018C45.4713 16.8202 44.9209 17.8149 44.6733 19.086H54.4958C54.2757 17.8426 53.7393 16.8478 52.8863 16.1018C52.0333 15.3558 50.9329 14.9827 49.5847 14.9827Z" fill="white"/>
<path d="M79.2979 13.0764V1.38843H85.1585V32.4735H79.7518V29.8209C78.3212 31.9209 76.0376 32.9708 72.9009 32.9708C69.8467 32.9708 67.4253 31.8932 65.6368 29.738C63.8483 27.5827 62.9541 24.8749 62.9541 21.6144C62.9541 18.354 63.8483 15.6461 65.6368 13.4909C67.4253 11.3356 69.8467 10.258 72.9009 10.258C74.3315 10.258 75.5972 10.5343 76.6976 11.0869C77.8256 11.6119 78.6927 12.2751 79.2979 13.0764ZM77.9774 26.0492C78.9676 24.8887 79.4628 23.4105 79.4628 21.6144C79.4628 19.8184 78.9676 18.3401 77.9774 17.1796C77.0143 16.0191 75.735 15.4389 74.139 15.4389C72.543 15.4389 71.2497 16.0191 70.2594 17.1796C69.2963 18.3401 68.8147 19.8184 68.8147 21.6144C68.8147 23.4105 69.2963 24.8887 70.2594 26.0492C71.2497 27.2097 72.543 27.79 74.139 27.79C75.735 27.79 77.0143 27.2097 77.9774 26.0492Z" fill="white"/>
<path d="M96.0025 6.9423C95.3425 7.6054 94.4894 7.937 93.4439 7.937C92.3983 7.937 91.5453 7.6054 90.8848 6.9423C90.2248 6.2792 89.8945 5.43636 89.8945 4.41404C89.8945 3.39167 90.2248 2.54892 90.8848 1.8858C91.5453 1.19499 92.3983 0.849609 93.4439 0.849609C94.4894 0.849609 95.3425 1.19499 96.0025 1.8858C96.663 2.54892 96.9932 3.39167 96.9932 4.41404C96.9932 5.43636 96.663 6.2792 96.0025 6.9423ZM90.5133 32.4735V10.7554H96.3739V32.4735H90.5133Z" fill="white"/>
<path d="M141.746 29.9301C139.657 32.1265 136.922 33.2246 133.542 33.2246C130.162 33.2246 127.427 32.1265 125.338 29.9301C123.25 27.706 122.205 24.9953 122.205 21.7981C122.205 18.6009 123.25 15.9041 125.338 13.7078C127.427 11.4836 130.162 10.3716 133.542 10.3716C136.922 10.3716 139.657 11.4836 141.746 13.7078C143.834 15.9041 144.879 18.6009 144.879 21.7981C144.879 24.9953 143.834 27.706 141.746 29.9301ZM129.585 17.2525C128.568 18.3646 128.059 19.8797 128.059 21.7981C128.059 23.7164 128.568 25.2316 129.585 26.3437C130.629 27.4558 131.948 28.0118 133.542 28.0118C135.136 28.0118 136.441 27.4558 137.458 26.3437C138.503 25.2316 139.025 23.7164 139.025 21.7981C139.025 19.8797 138.503 18.3646 137.458 17.2525C136.441 16.1404 135.136 15.5844 133.542 15.5844C131.948 15.5844 130.629 16.1404 129.585 17.2525Z" fill="white"/>
<path fill-rule="evenodd" clip-rule="evenodd" d="M115.491 22.3881C115.249 22.0395 114.739 22.0241 114.477 22.3576L111.814 25.7497C111.648 25.9618 111.635 26.2565 111.782 26.4826L115.98 32.9234C116.073 33.0661 116.232 33.1521 116.403 33.1521H121.98C122.386 33.1521 122.625 32.6956 122.394 32.3615L115.491 22.3881ZM108.152 27.1992C108.024 27.3623 107.803 27.4722 107.645 27.3381C107.543 27.2515 107.474 27.1227 107.471 26.9642L107.428 24.329C107.42 23.8633 106.838 23.6565 106.538 24.0127L102.543 28.755C102.24 29.1143 101.653 28.9002 101.653 28.4303V3.00386C101.653 2.7256 101.879 2.5 102.157 2.5H106.907C107.186 2.5 107.411 2.7256 107.411 3.00386V20.0217C107.411 20.4986 108.012 20.7087 108.309 20.3356L115.005 11.9265C115.1 11.8064 115.245 11.7365 115.399 11.7365H118.176C118.856 11.7365 119.053 12.6646 118.433 12.9416L116.103 13.9806C115.761 14.1333 115.826 14.6418 116.196 14.7021L116.711 14.786C117.184 14.8631 117.401 15.4195 117.105 15.7966L108.152 27.1992Z" fill="white"/>
</svg>

<svg width="145" height="34" viewBox="0 0 145 34" fill="none" xmlns="http://www.w3.org/2000/svg"><path d="M6.026 15.77h6.52c1.321 0 2.312-.317 2.972-.953.66-.636.99-1.506.99-2.611 0-1.105-.33-1.976-.99-2.611-.66-.663-1.65-.995-2.971-.995H6.026v7.17zm0 5.554v11.15H0V3.045h12.547c3.356 0 5.86.843 7.511 2.528 1.65 1.686 2.476 3.896 2.476 6.632 0 2.708-.853 4.904-2.559 6.59-1.678 1.685-4.154 2.528-7.428 2.528H6.026zM37.88 10.59v5.512a5.895 5.895 0 00-1.155-.124c-1.734 0-3.04.455-3.92 1.367-.854.912-1.28 2.349-1.28 4.31v10.818h-5.86V10.755h5.406v2.819c1.238-2.017 3.274-3.026 6.108-3.026l.701.041zm22.394 12.724H44.591c.192 1.492.743 2.638 1.65 3.44.909.773 2.105 1.16 3.591 1.16.935 0 1.775-.193 2.518-.58.77-.415 1.32-1.009 1.65-1.782h5.903c-.633 2.21-1.885 4.006-3.756 5.388-1.844 1.354-4.004 2.03-6.48 2.03-3.192 0-5.805-1.063-7.841-3.19-2.037-2.128-3.054-4.864-3.054-8.207 0-3.233 1.017-5.927 3.054-8.082 2.036-2.156 4.636-3.233 7.8-3.233 3.164 0 5.736 1.077 7.718 3.233 2.008 2.127 3.012 4.821 3.012 8.082l-.082 1.74zm-10.69-8.331c-1.32 0-2.407.373-3.26 1.119-.853.718-1.403 1.713-1.65 2.984h9.822c-.22-1.243-.757-2.238-1.61-2.984-.853-.746-1.953-1.12-3.301-1.12zm29.714-1.907V1.388h5.86v31.086h-5.406V29.82c-1.43 2.1-3.714 3.15-6.851 3.15-3.054 0-5.476-1.078-7.264-3.233-1.789-2.155-2.683-4.863-2.683-8.124 0-3.26.894-5.968 2.683-8.123 1.788-2.155 4.21-3.233 7.264-3.233 1.43 0 2.696.276 3.797.829 1.128.525 1.995 1.188 2.6 1.99zm-1.32 12.973c.99-1.16 1.485-2.639 1.485-4.435 0-1.796-.495-3.274-1.486-4.434-.963-1.16-2.242-1.741-3.838-1.741s-2.89.58-3.88 1.74c-.963 1.161-1.444 2.64-1.444 4.435 0 1.796.481 3.275 1.444 4.435.99 1.16 2.284 1.741 3.88 1.741s2.875-.58 3.838-1.74zM96.002 6.942c-.66.663-1.513.995-2.558.995-1.046 0-1.899-.332-2.56-.995-.66-.663-.99-1.506-.99-2.528s.33-1.865.99-2.528c.661-.691 1.514-1.036 2.56-1.036 1.045 0 1.898.345 2.558 1.036.661.663.991 1.506.991 2.528s-.33 1.865-.99 2.528zm-5.489 25.532V10.755h5.86v21.718h-5.86zm51.233-2.544c-2.089 2.197-4.824 3.295-8.204 3.295-3.38 0-6.115-1.099-8.204-3.295-2.088-2.224-3.133-4.935-3.133-8.132s1.045-5.894 3.133-8.09c2.089-2.224 4.824-3.336 8.204-3.336 3.38 0 6.115 1.112 8.204 3.336 2.088 2.196 3.133 4.893 3.133 8.09s-1.045 5.908-3.133 8.132zm-12.161-12.677c-1.017 1.112-1.526 2.627-1.526 4.545 0 1.918.509 3.434 1.526 4.546 1.044 1.112 2.363 1.668 3.957 1.668 1.594 0 2.899-.556 3.916-1.668 1.045-1.112 1.567-2.628 1.567-4.546 0-1.918-.522-3.433-1.567-4.545-1.017-1.113-2.322-1.669-3.916-1.669-1.594 0-2.913.556-3.957 1.669z" fill="#fff"/><path fill-rule="evenodd" clip-rule="evenodd" d="M115.491 22.388a.63.63 0 00-1.014-.03l-2.663 3.392a.631.631 0 00-.032.733l4.198 6.44a.504.504 0 00.423.23h5.577a.504.504 0 00.414-.791l-6.903-9.974zm-7.339 4.811c-.128.163-.349.273-.507.14a.494.494 0 01-.174-.375l-.043-2.635a.504.504 0 00-.89-.316l-3.995 4.742a.504.504 0 01-.89-.325V3.004c0-.278.226-.504.504-.504h4.75c.279 0 .504.226.504.504v17.018c0 .477.601.687.898.314l6.696-8.41c.095-.12.24-.19.394-.19h2.777c.68 0 .877.929.257 1.206l-2.33 1.039c-.342.152-.277.66.093.721l.515.084a.63.63 0 01.394 1.01L108.152 27.2z" fill="#fff"/></svg>
